X:110
T:Maggie Brown      Set (long) Dance    Allan's  110  pp28
C:Trad/Anon
B:Allan's Irish Fiddler (pub. Mozart Allen,  Glascow) date unknown
Z:FROM ALLAN'S TO NOTEWORTHY, FROM NOTEWORTHY TO ABC, MIDI AND .TXT BY VINCE
BRENNAN Dec. 2002 (HTTP://WWW.SOSYOURMOM.COM)
I:abc2nwc
M:6/8
L:1/8
K:G
(g|d)BG GAB|E2E E2B|AFD DEF|G2G G2(g|
d)BG Bcd|E2E E2B|AFD DEF|G3G2:|
|:(g/2a/2|b)gb afd|efg gfe|dBg dBG|AFD D2(g/2a/2|
b)gb afd|efg gfe|faf gec|d2d def|
ece dBd|cac BgB|Ace dBG|FGF DEF|
GAB EFG|ABc def|gdB cAF|G3G2:|
